remix/Editor/italic.svg

<svg viewBox="0 0 24 24" fill="currentColor" xmlns="http://www.w3.org/2000/svg"><path d="M15 20H7V18H9.92661L12.0425 6H9V4H17V6H14.0734L11.9575 18H15V20Z"/></svg>

<svg viewBox="0 0 24 24" xmlns="http://www.w3.org/2000/svg"><path fill="none" d="M0 0h24v24H0Z"/><path d="M15 20H7v-2h2.92l2.11-12H8.98V4h8v2h-2.93l-2.12 12h3.04Z"/></svg>
